**kern	**kern
*part1	*part1
*staff2	*staff1
*I"Piano	*
*I'Pno.	*
*clefF4	*clefG2
*k[b-]	*k[b-]
*M2/4	*M2/4
16CLL	8cc
16E	.
16G	8b-
16EJJ	.
=1	=1
16FLL	8a
16c	.
16B-	8g
16cJJ	.
16ALL	8.f
16c	.
16B-	.
16cJJ	16g
=2	=2
*^	*
16ALL	4C	8f
16c	.	.
16G	.	8e
16cJJ	.	.
*v	*v	*
*clefG2	*
=3||	=3||
*k[f#c#]	*k[f#c#]
*M4/4	*M4/4
*met(c)	*met(c)
*tremolo	*
8d#X 8aL	2.b
8d#X 8a	.
8d#X 8a	.
8d#X 8aJ	.
8d# 8aL	.
8d# 8a	.
.	8qdd/
8d# 8a	8ccnL
8d# 8aJ	8bJ
=4	=4
8e 8gL	8b
8e 8g	8r
8e 8g	8ee
8e 8gJ	8r
8e 8gL	8gg
8e 8g	8r
8e 8g	4r
8e 8gJ	.
*
!!linebreak:original
*clefF4	*
=5||	=5||
*k[b-e-a-]	*k[b-e-a-]
*M2/4	*M2/4
4r	8.ffL
.	16ee-Jk
=6	=6
*^	*^
4r	16BB-LL	8ee-L	4.f 4.a-
.	16B-	.	.
.	16B-	[8ddJ	.
.	16B-JJ	.	.
8r	16B-LL	(16ddLL]	.
.	16B-	16ff	.
(8e-	16e-	16ee-	8g
.	16B-JJ	16ccJJ)	.
=7	=7	=7	=7
4d)	16dLL	(8ccL	4f
.	16B-	.	.
.	16B-	8b-J)	.
.	16B-JJ	.	.
*v	*v	*	*
*	*v	*v
==	==
*-	*-
!!!system-decoration: {(s1,s2)}
